X: 20216
T: Joe Bane's Schottische
R: barndance
M: 4/4
K: Dmajor
|:AGFG A3B|defd A4|fafd efed|1 cABc d3B:|2 cABc defg||
|:a3g fafe|defd A4|fafd efed|1 cABc defg:|2 cABc d4||

